Sources/FrostedUI/Resources/Icons.xcassets/star24.imageset/star-24.svg

<svg width="24" height="24" viewBox="0 0 24 24" fill="none" xmlns="http://www.w3.org/2000/svg" data-fui-icon="true">
  <path
    d="M10.0095 1.89575C10.9148 0.317606 13.2651 0.370595 14.074 2.05396L16.406 6.90747L21.7751 7.6106C23.687 7.86127 24.4716 10.2225 23.0554 11.5579L19.1355 15.2532L20.1199 20.5315C20.4761 22.4443 18.4526 23.8821 16.7654 22.9729L11.9998 20.4036L7.23511 22.9729C5.54788 23.8822 3.52503 22.4448 3.88159 20.5315L4.86401 15.2522L0.945068 11.5579C-0.471323 10.2225 0.313276 7.86104 2.22534 7.6106L7.59351 6.90747L9.92651 2.05396L10.0095 1.89575ZM12.7224 2.70337C12.4322 2.09949 11.5683 2.0995 11.2781 2.70337L8.78198 7.89966L8.73315 7.98755C8.60689 8.18273 8.39924 8.31501 8.16479 8.34595L2.42065 9.0979C1.75278 9.18534 1.48528 10.0049 1.97437 10.4661L6.17358 14.425C6.37038 14.6109 6.45941 14.8842 6.40991 15.1497L5.3562 20.8059C5.24115 21.4235 5.84792 21.9075 6.41187 21.7024L6.52319 21.6526L11.6199 18.9055C11.8575 18.7777 12.1441 18.7775 12.3816 18.9055L17.4773 21.6526C18.0317 21.951 18.6809 21.5248 18.6589 20.928L18.6453 20.8059L17.5906 15.1497C17.541 14.884 17.6299 14.6109 17.8269 14.425L22.0261 10.4661C22.4845 10.0338 22.2786 9.28627 21.7009 9.12231L21.5808 9.0979L15.8367 8.34595C15.6022 8.31524 15.3948 8.1826 15.2683 7.98755L15.2185 7.89966L12.7224 2.70337Z"
    fill="currentColor"
  />
</svg>

<svg xmlns="http://www.w3.org/2000/svg" width="24" height="24" fill="none" data-fui-icon="true" viewBox="0 0 24 24"><path fill="currentColor" d="M10.01 1.896c.905-1.578 3.255-1.525 4.064.158l2.332 4.853 5.37.704c1.911.25 2.696 2.612 1.28 3.947l-3.92 3.695.984 5.279c.356 1.912-1.667 3.35-3.355 2.44L12 20.405l-4.765 2.569c-1.687.91-3.71-.528-3.353-2.441l.982-5.28-3.919-3.694C-.47 10.223.313 7.86 2.225 7.61l5.369-.704 2.333-4.853zm2.712.807a.802.802 0 0 0-1.444 0L8.782 7.9l-.049.088a.8.8 0 0 1-.568.358l-5.744.752a.796.796 0 0 0-.447 1.368l4.2 3.959c.196.186.285.46.236.725l-1.054 5.656a.8.8 0 0 0 1.056.896l.111-.05 5.097-2.747a.8.8 0 0 1 .762 0l5.095 2.748a.801.801 0 0 0 1.182-.725l-.014-.122-1.054-5.656a.8.8 0 0 1 .236-.725l4.2-3.959a.796.796 0 0 0-.326-1.344l-.12-.024-5.744-.752a.8.8 0 0 1-.569-.358l-.05-.088z"/></svg>
